X: 34880
T: Robertson's
R: reel
M: 4/4
K: Gmajor
GA|B2AB d2BA|GAGE D2GA|B2AB dBGB|A6 GA|
B2AB d2BA|GAGE D2GA|BABd AGAd|G6:|
|:Bc|d2Bd g2fg|edBd d2Bc|d2Bd g2fg|e6 de|
g2G2 G2BA|GAGE D2GA|BABd AGAd|G6:|

